app/component-library/components/Icons/Icon/assets/star.svg

<svg width="24" height="24" viewBox="0 0 24 24" fill="none" xmlns="http://www.w3.org/2000/svg">
<path d="M14.0107 3.51014L15.7707 7.03014C16.0107 7.52014 16.6507 7.99014 17.1907 8.08014L20.3807 8.61014C22.4207 8.95014 22.9007 10.4301 21.4307 11.8901L18.9507 14.3701C18.5307 14.7901 18.3007 15.6001 18.4307 16.1801L19.1407 19.2501C19.7007 21.6801 18.4107 22.6201 16.2607 21.3501L13.2707 19.5801C12.7307 19.2601 11.8407 19.2601 11.2907 19.5801L8.30067 21.3501C6.16067 22.6201 4.86067 21.6701 5.42067 19.2501L6.13067 16.1801C6.26067 15.6001 6.03067 14.7901 5.61067 14.3701L3.13067 11.8901C1.67067 10.4301 2.14067 8.95014 4.18067 8.61014L7.37067 8.08014C7.90067 7.99014 8.54067 7.52014 8.78067 7.03014L10.5407 3.51014C11.5007 1.60014 13.0607 1.60014 14.0107 3.51014Z" fill="currentColor" stroke="currentColor" stroke-width="1.5" stroke-linecap="round" stroke-linejoin="round"/>
</svg>

<svg xmlns="http://www.w3.org/2000/svg" width="24" height="24" viewBox="0 0 24 24" fill="none"><path fill="currentColor" stroke="currentColor" stroke-linecap="round" stroke-linejoin="round" stroke-width="1.5" d="m14.01 3.51 1.76 3.52c.24.49.88.96 1.42 1.05l3.19.53c2.04.34 2.52 1.82 1.05 3.28l-2.48 2.48c-.42.42-.65 1.23-.52 1.81l.71 3.07c.56 2.43-.73 3.37-2.88 2.1l-2.99-1.77c-.54-.32-1.43-.32-1.98 0L8.3 21.35c-2.14 1.27-3.44.32-2.88-2.1l.71-3.07c.13-.58-.1-1.39-.52-1.81l-2.48-2.48c-1.46-1.46-.99-2.94 1.05-3.28l3.19-.53c.53-.09 1.17-.56 1.41-1.05l1.76-3.52c.96-1.91 2.52-1.91 3.47 0Z"/></svg>
